!!! OTL: Literature60
!!! Chapter: 5
!!! Section: II
!!! Page: 358
!!! Mode: 
!!! Encoder: ESM
**kern
*staff1
*I"Piano
=1-
*clefG2
*k[b-]
*F:
*M4/4
4r
4r
8.a/L
16g#/Jk
8.a/L
16f/Jk
=2
2d/
8f/
4f/
8d/
=3
4f/
4d/
8.a/L
16g#/Jk
8.a/L
16f/Jk
=4
2d/
8f/
4dd\
8cc#\
=5
4dd\
4a/
8.a/L
16g#/Jk
8.a/L
16f/Jk
=6
2d/
8f/
4f/
8d/
=7
2f/
4f/
8r
8g/
=8
!!linebreak:original
8.a/L
16a/Jk
8.a/L
16a/Jk
8.g/L
16g/Jk
8.g/L
16g/Jk
=9
1f
=10
8cc\
4a/
[8cc\
8.cc\L]
16a\Jk
8.cc\L
16a\Jk
=11
8cc\
4.dd\
2cc\
=12
8.cc\L
16cc\Jk
8.cc\L
16dd\Jk
8.ee\L
16ee\Jk
8.dd\L
16dd\Jk
=13
2.cc\
4cc\
=14
4ff\
4dd\
8.cc\L
16cc\Jk
8.a/L
16a/Jk
=15
!!linebreak:original
4dd\
8.cc\L
16cc\Jk
8a/
4.f/
=16
8.a/L
16a/Jk
8.a/L
16a/Jk
8.g/L
16g/Jk
8.g/L
16g/Jk
=17
2f/
2r
==
*-
